assets/features/global-acquiring/icon_4.svg

<svg width="72" height="72" viewBox="0 0 72 72" fill="none" xmlns="http://www.w3.org/2000/svg">
<g clip-path="url(#clip0_1540_4597)">
<path d="M52 1H20C9.50659 1 1 9.50659 1 20V52C1 62.4934 9.50659 71 20 71H52C62.4934 71 71 62.4934 71 52V20C71 9.50659 62.4934 1 52 1Z" stroke="#9095A1" stroke-width="2"/>
<path d="M27.5774 35.0155C27.5774 31.4494 30.5491 29.6663 30.668 29.5475C29.0038 27.0512 26.3886 26.8134 25.4377 26.6946C23.1791 26.4568 21.1583 28.0021 19.9696 28.0021C18.8998 28.0021 17.1167 26.6946 15.2148 26.8134C12.8374 26.8134 10.5788 28.2399 9.27124 30.3796C6.77495 34.6589 8.67688 41.1968 11.1732 44.7629C12.3619 46.546 13.7883 48.4479 15.6903 48.3291C17.4733 48.2102 18.1866 47.1404 20.3262 47.1404C22.4659 47.1404 23.1791 48.3291 25.0811 48.3291C26.983 48.3291 28.2906 46.546 29.4793 44.8818C30.9057 42.861 31.3812 40.9591 31.5001 40.8402C31.2624 40.7213 27.5774 39.2949 27.5774 35.0155ZM23.8924 24.3171C24.8433 23.1284 25.5566 21.4642 25.3188 19.8C23.8924 19.8 22.1093 20.751 21.1583 21.9397C20.2074 23.0096 19.3753 24.6738 19.613 26.3379C21.2772 26.4568 22.9414 25.5059 23.8924 24.3171Z" stroke="#9095A1" stroke-width="2"/>
<path d="M65.4729 33.5351H51.2253V38.7924H59.794C58.6199 42.3632 55.2631 44.9448 51.2999 44.9448C46.3604 44.9448 42.355 40.9394 42.355 36C42.355 31.0605 46.3604 27.0551 51.2999 27.0551C53.5896 27.0551 55.675 27.9243 57.2545 29.3384L60.8967 25.2875C58.3475 23.0011 54.9907 21.6 51.2999 21.6C43.3442 21.6 36.8999 28.0475 36.8999 36C36.8999 43.9524 43.3442 50.4 51.2999 50.4C59.2523 50.4 65.6999 43.9524 65.6999 36C65.6999 35.1567 65.6123 34.3362 65.4729 33.5351Z" stroke="#9095A1" stroke-width="2"/>
</g>
<defs>
<clipPath id="clip0_1540_4597">
<rect width="72" height="72" fill="white"/>
</clipPath>
</defs>
</svg>

<svg xmlns="http://www.w3.org/2000/svg" width="72" height="72" fill="none" viewBox="0 0 72 72"><g stroke="#9095a1" stroke-width="2" clip-path="url(#a)"><path d="M52 1H20C9.507 1 1 9.507 1 20v32c0 10.493 8.507 19 19 19h32c10.493 0 19-8.507 19-19V20C71 9.507 62.493 1 52 1Z"/><path d="M27.577 35.016c0-3.567 2.972-5.35 3.091-5.468-1.664-2.497-4.28-2.735-5.23-2.853-2.259-.238-4.28 1.307-5.468 1.307-1.07 0-2.853-1.307-4.755-1.189-2.378 0-4.636 1.427-5.944 3.567-2.496 4.279-.594 10.817 1.902 14.383 1.189 1.783 2.615 3.685 4.517 3.566 1.783-.119 2.497-1.189 4.636-1.189s2.853 1.19 4.755 1.19 3.21-1.784 4.398-3.448c1.427-2.021 1.902-3.923 2.021-4.042-.238-.119-3.923-1.545-3.923-5.824Zm-3.685-10.699c.951-1.189 1.665-2.853 1.427-4.517-1.427 0-3.21.951-4.16 2.14-.952 1.07-1.784 2.734-1.546 4.398 1.664.119 3.328-.832 4.28-2.02Zm41.581 9.218H51.225v5.257h8.569c-1.174 3.571-4.53 6.153-8.494 6.153a8.946 8.946 0 0 1 0-17.89c2.29 0 4.375.87 5.955 2.283l3.642-4.05A14.32 14.32 0 0 0 51.3 21.6c-7.956 0-14.4 6.447-14.4 14.4 0 7.952 6.444 14.4 14.4 14.4 7.952 0 14.4-6.448 14.4-14.4 0-.843-.088-1.664-.227-2.465Z"/></g><defs><clipPath id="a"><path fill="#fff" d="M0 0h72v72H0z"/></clipPath></defs></svg>
